X: 21805
Q: "Slow."
M: C
L: 1/8
K: F
f |\
(3(cde) |\
fedc fABA | GFGA GFDE | FEFD CDFG | AFcA AGG (c/d//e//) |\
fedc fABA | GFGA GFDE | FEFD CDFG | A2HG2 F2 |]


